lib/preview/nrk-logo-preview-nrk-stor-oslo-title-right-on-light.svg

<svg width="115" height="24" viewBox="0 0 115 24" fill="none" xmlns="http://www.w3.org/2000/svg">
<path d="M0 17.9987V5.99984H4V17.9987H0ZM9.24381 7.90953L11.5081 17.9987H7.19917L4.49549 5.99984H6.91217C7.46635 5.99265 8.00406 6.188 8.4245 6.54914C8.84562 6.89513 9.08495 7.37545 9.24381 7.90953ZM12 17.9987V5.99984H16V17.9987H12ZM19.0105 10.5628C18.5862 10.567 18.1687 10.456 17.8025 10.2417C17.4412 10.0329 17.1411 9.73271 16.9323 9.37135C16.7178 9.00508 16.6068 8.58751 16.611 8.16307C16.6061 7.74121 16.7172 7.32613 16.9323 6.96318C17.1433 6.60574 17.4431 6.30884 17.8025 6.10127C18.1689 5.88725 18.5862 5.77626 19.0105 5.78013C19.4322 5.77559 19.8471 5.88668 20.2102 6.10127C20.566 6.31066 20.8626 6.60731 21.072 6.96318C21.2868 7.32623 21.3979 7.74124 21.3933 8.16307C21.3973 8.58748 21.2863 9.00498 21.072 9.37135C20.8649 9.73112 20.5679 10.031 20.2102 10.2417C19.8471 10.4567 19.4324 10.5678 19.0105 10.5628ZM22 17.9987V5.99984H26V17.9987H22ZM30.9737 12.557C30.9848 12.5686 31.0693 12.7066 31.2272 12.971C31.3851 13.2354 31.5906 13.5734 31.8439 13.985C32.0974 14.3965 32.3649 14.833 32.6463 15.2947C32.9278 15.7565 33.1926 16.1931 33.4408 16.6045C33.6881 17.0159 33.9697 17.4807 34.2857 17.9987H29.9598C29.6893 17.5593 29.4441 17.1622 29.2245 16.8073C29.0048 16.4524 28.7713 16.0693 28.5238 15.6581C28.2758 15.2472 28.0306 14.8473 27.7882 14.4582C27.5458 14.0691 27.3375 13.7284 27.1633 13.4358C26.9883 13.1431 26.8671 12.9459 26.7997 12.8443C26.6325 12.5922 26.5336 12.301 26.5127 11.9993C26.5294 11.7097 26.6226 11.4297 26.7828 11.1879C26.8503 11.0752 26.9743 10.8752 27.1545 10.5879C27.3348 10.3006 27.546 9.9598 27.7882 9.56547C28.0304 9.17114 28.2756 8.76835 28.5238 8.35712C28.772 7.94589 29.0055 7.55998 29.2245 7.19945C29.4445 6.8393 29.6897 6.43933 29.9598 5.99956H34.2857L30.9396 11.4582C30.8361 11.6203 30.7777 11.8071 30.7706 11.9993C30.7818 12.2011 30.8528 12.3951 30.9737 12.557Z" fill="#0A2343"/>
<g clip-path="url(#clip0_5919_2930)">
<path d="M46.4928 13.2853C46.6229 13.6474 46.688 14.0773 46.688 14.5751C46.688 15.254 46.572 15.8225 46.3401 16.2807C46.1081 16.739 45.78 17.1095 45.3557 17.3923C44.9314 17.6752 44.4393 17.8789 43.8792 18.0033C43.3192 18.1278 42.7167 18.19 42.0718 18.19C41.8002 18.19 41.5315 18.1787 41.2656 18.1561C40.9998 18.1334 40.7339 18.1023 40.468 18.0627C40.2021 18.0231 39.9277 17.9665 39.6449 17.893C39.362 17.8195 39.0679 17.7261 38.7624 17.613L38.5417 15.9328C38.8133 16.0346 39.099 16.1336 39.3988 16.2298C39.6986 16.326 40.0069 16.408 40.3237 16.4759C40.6405 16.5438 40.9573 16.5975 41.2741 16.6371C41.5909 16.6767 41.8964 16.6965 42.1906 16.6965C42.5413 16.6965 42.8553 16.6739 43.1325 16.6286C43.4097 16.5834 43.6558 16.5098 43.8707 16.408C44.0857 16.3062 44.2667 16.1704 44.4138 16.0007C44.5609 15.831 44.674 15.633 44.7532 15.4067C44.8324 15.1804 44.872 14.9202 44.872 14.626C44.872 14.3319 44.8296 14.0999 44.7448 13.8963C44.6599 13.6926 44.5439 13.5229 44.3968 13.3871C44.2498 13.2514 44.0716 13.1326 43.8622 13.0307C43.6529 12.9289 43.4182 12.8412 43.1579 12.7677C42.8977 12.6941 42.6149 12.6234 42.3094 12.5555C41.936 12.4763 41.5711 12.3802 41.2147 12.267C40.8583 12.1539 40.5274 12.0181 40.2219 11.8597C39.9164 11.7013 39.6449 11.5033 39.4073 11.2657C39.1697 11.0281 38.9858 10.7424 38.8557 10.4087C38.7256 10.0749 38.6605 9.67607 38.6605 9.21219C38.6605 8.62385 38.7652 8.11472 38.9745 7.68478C39.1838 7.25484 39.4837 6.89844 39.874 6.61559C40.2643 6.33273 40.7254 6.12342 41.2572 5.98765C41.7889 5.85188 42.3829 5.78399 43.0391 5.78399C43.3333 5.78399 43.6218 5.79814 43.9047 5.82642C44.1875 5.85471 44.4647 5.89714 44.7363 5.95371C45.0078 6.01028 45.2765 6.07816 45.5424 6.15736C45.8083 6.23656 46.06 6.33839 46.2976 6.46284L46.06 7.95632C45.8564 7.84318 45.6329 7.74418 45.3897 7.65932C45.1464 7.57446 44.8947 7.50375 44.6344 7.44718C44.3742 7.39061 44.1083 7.34818 43.8368 7.31989C43.5652 7.29161 43.2994 7.27747 43.0391 7.27747C42.7223 7.27747 42.431 7.29727 42.1651 7.33687C41.8992 7.37647 41.6645 7.44435 41.4608 7.54052C41.2572 7.63669 41.079 7.75549 40.9262 7.89692C40.7735 8.03835 40.6603 8.21089 40.5868 8.41454C40.5132 8.6182 40.4765 8.85014 40.4765 9.11036C40.4765 9.37059 40.5132 9.59405 40.5868 9.78073C40.6603 9.96741 40.7706 10.1258 40.9177 10.2559C41.0648 10.386 41.2374 10.4992 41.4354 10.5954C41.6334 10.6915 41.8596 10.7736 42.1142 10.8414C42.3688 10.9093 42.6431 10.9772 42.9373 11.0451C43.322 11.1243 43.6954 11.2205 44.0574 11.3336C44.4195 11.4467 44.7617 11.5853 45.0842 11.7494C45.4066 11.9135 45.6895 12.1199 45.9327 12.3689C46.176 12.6178 46.3627 12.9232 46.4928 13.2853ZM53.0098 16.6371C52.9136 16.6541 52.8174 16.6711 52.7213 16.688C52.6251 16.705 52.5317 16.7163 52.4412 16.722C52.3507 16.7276 52.2659 16.7305 52.1867 16.7305C51.8925 16.7305 51.6407 16.6796 51.4314 16.5777C51.2221 16.4759 51.0609 16.326 50.9478 16.128C50.8346 15.93 50.778 15.6896 50.778 15.4067V10.7057H53.171L53.3577 9.34796H50.778V6.6665L49.047 7.27747V9.34796H47.7402L47.5535 10.7057H49.047V15.7631C49.047 16.1478 49.0979 16.4787 49.1997 16.7559C49.3015 17.0331 49.4345 17.2622 49.5985 17.4433C49.7626 17.6243 49.9549 17.7657 50.1756 17.8675C50.3962 17.9694 50.631 18.0429 50.8799 18.0882C51.1288 18.1334 51.372 18.1561 51.6096 18.1561C51.7907 18.1561 51.9689 18.1504 52.1442 18.1391C52.3196 18.1278 52.4808 18.1108 52.6279 18.0882C52.775 18.0655 52.9136 18.0401 53.0437 18.0118C53.1738 17.9835 53.2841 17.9581 53.3746 17.9354L53.4765 16.5268C53.4199 16.5494 53.352 16.5692 53.2728 16.5862C53.1936 16.6032 53.1059 16.6202 53.0098 16.6371ZM62.6749 11.2403C63.0256 11.9021 63.201 12.68 63.201 13.5738C63.201 14.5129 63.0115 15.3275 62.6325 16.0177C62.2535 16.7078 61.7245 17.2396 61.0457 17.613C60.3668 17.9863 59.5861 18.173 58.7036 18.173C57.8211 18.173 57.1083 17.9977 56.4634 17.6469C55.8185 17.2962 55.3235 16.7842 54.9784 16.111C54.6333 15.4378 54.4608 14.6373 54.4608 13.7096C54.4608 12.7818 54.6447 11.9785 55.0124 11.2997C55.3801 10.6208 55.8949 10.0947 56.5568 9.72133C57.2186 9.34796 57.9908 9.16128 58.8733 9.16128C59.7558 9.16128 60.5224 9.34231 61.173 9.70436C61.8235 10.0664 62.3242 10.5784 62.6749 11.2403ZM61.4021 13.6078C61.4021 13.1439 61.3511 12.7224 61.2493 12.3434C61.1475 11.9644 60.9919 11.6391 60.7826 11.3675C60.5733 11.096 60.3131 10.8895 60.0019 10.7481C59.6908 10.6067 59.3203 10.536 58.8903 10.536C58.3472 10.536 57.8805 10.6491 57.4902 10.8754C57.0998 11.1017 56.7972 11.4411 56.5822 11.8937C56.3672 12.3462 56.2598 12.9176 56.2598 13.6078C56.2598 14.2979 56.3672 14.8976 56.5822 15.3728C56.7972 15.848 57.0914 16.2044 57.4647 16.442C57.8381 16.6796 58.2793 16.7984 58.7885 16.7984C59.2976 16.7984 59.7502 16.6824 60.1462 16.4504C60.5422 16.2185 60.8505 15.8649 61.0711 15.3897C61.2917 14.9145 61.4021 14.3205 61.4021 13.6078ZM68.8525 9.28856C68.5357 9.37342 68.2358 9.50353 67.953 9.6789C67.6701 9.85427 67.4042 10.0664 67.1553 10.3153C67.1157 10.3549 67.0761 10.4002 67.0365 10.4426V9.17825L65.3055 9.43282V18.0033H67.0365V11.591C67.1666 11.5005 67.2996 11.4156 67.4354 11.3421C67.6107 11.2459 67.7861 11.1639 67.9615 11.096C68.1368 11.0281 68.315 10.9687 68.4961 10.9178C68.6771 10.8669 68.8666 10.8301 69.0646 10.8075C69.2626 10.7849 69.4691 10.7792 69.684 10.7905L69.8877 9.19522C69.5143 9.17259 69.1693 9.20371 68.8525 9.28856ZM70.3968 13.8793H75.1997L75.3185 12.4876H70.5156L70.3968 13.8793ZM88.3185 9.43282C88.5787 10.1909 88.7088 11.0338 88.7088 11.9615C88.7088 12.8893 88.5731 13.7831 88.3015 14.5412C88.03 15.2992 87.6397 15.9498 87.1305 16.4929C86.6214 17.036 86.0076 17.4546 85.2891 17.7487C84.5707 18.0429 83.7589 18.19 82.8538 18.19C81.9486 18.19 81.1595 18.0514 80.4523 17.7742C79.7452 17.497 79.1427 17.0925 78.6449 16.5608C78.1471 16.029 77.768 15.3869 77.5078 14.6345C77.2476 13.8821 77.1175 13.0364 77.1175 12.0973C77.1175 11.1582 77.2504 10.3012 77.5163 9.52616C77.7822 8.75114 78.1669 8.08643 78.6703 7.53204C79.1738 6.97764 79.7876 6.5477 80.5117 6.24222C81.2358 5.93673 82.0561 5.78399 82.9726 5.78399C83.889 5.78399 84.6838 5.93108 85.391 6.22525C86.0981 6.51942 86.6978 6.93804 87.1899 7.48112C87.6821 8.0242 88.0583 8.67477 88.3185 9.43282ZM86.876 11.9785C86.876 11.0394 86.7204 10.2163 86.4092 9.50919C86.0981 8.80205 85.654 8.25331 85.077 7.86298C84.5 7.47264 83.7985 7.27747 82.9726 7.27747C82.1466 7.27747 81.3999 7.48395 80.8002 7.89692C80.2006 8.30989 79.7395 8.87842 79.4171 9.60253C79.0946 10.3266 78.9334 11.1582 78.9334 12.0973C78.9334 12.7988 79.0211 13.4324 79.1964 13.9981C79.3718 14.5638 79.632 15.0475 79.9771 15.4491C80.3222 15.8508 80.7352 16.1591 81.216 16.3741C81.6969 16.589 82.2485 16.6965 82.8707 16.6965C83.493 16.6965 84.087 16.5806 84.5848 16.3486C85.0827 16.1167 85.5013 15.7942 85.8407 15.3813C86.1801 14.9683 86.4375 14.4733 86.6129 13.8963C86.7883 13.3192 86.876 12.68 86.876 11.9785ZM96.2271 14.0999C96.0574 13.9189 95.8594 13.7633 95.6331 13.6332C95.4068 13.5031 95.1692 13.3928 94.9203 13.3023C94.7393 13.2457 94.5611 13.1863 94.3857 13.1241C94.2104 13.0618 94.035 13.0053 93.8596 12.9544C93.6843 12.9034 93.5145 12.8497 93.3505 12.7931C93.1864 12.7366 93.0365 12.6743 92.9008 12.6064C92.7537 12.5272 92.6207 12.4424 92.5019 12.3519C92.3831 12.2614 92.287 12.1539 92.2134 12.0294C92.1399 11.905 92.1031 11.7635 92.1031 11.6051C92.1031 11.4241 92.1427 11.2685 92.2219 11.1384C92.3011 11.0083 92.4199 10.898 92.5783 10.8075C92.7367 10.717 92.9262 10.6491 93.1468 10.6038C93.3675 10.5586 93.6192 10.536 93.9021 10.536C94.0265 10.536 94.1623 10.5416 94.3094 10.5529C94.4565 10.5642 94.6177 10.584 94.7931 10.6123C94.9684 10.6406 95.1438 10.6774 95.3192 10.7226C95.4945 10.7679 95.6727 10.8188 95.8538 10.8754C96.0348 10.9319 96.1988 10.9942 96.3459 11.0621L96.4647 9.68739C96.2498 9.59687 96.0376 9.51768 95.8283 9.44979C95.619 9.38191 95.4068 9.32533 95.1919 9.28008C94.9769 9.23482 94.7648 9.20371 94.5555 9.18674C94.3461 9.16976 94.1397 9.16128 93.936 9.16128C93.4269 9.16128 92.963 9.21502 92.5444 9.32251C92.1257 9.42999 91.7608 9.58839 91.4497 9.7977C91.1386 10.007 90.8981 10.2729 90.7284 10.5954C90.5587 10.9178 90.4739 11.2997 90.4739 11.7409C90.4739 12.0577 90.5191 12.3377 90.6096 12.581C90.7001 12.8242 90.8189 13.0307 90.966 13.2004C91.1131 13.3702 91.2857 13.5201 91.4837 13.6502C91.6816 13.7803 91.8938 13.8906 92.1201 13.9811C92.2445 14.0264 92.3746 14.0716 92.5104 14.1169C92.6462 14.1621 92.7791 14.2046 92.9092 14.2442C93.0394 14.2838 93.1666 14.3234 93.2911 14.363C93.4156 14.4026 93.5372 14.4422 93.656 14.4818C93.7748 14.5214 93.8907 14.5581 94.0039 14.5921C94.1623 14.6487 94.3094 14.7137 94.4451 14.7873C94.5809 14.8608 94.6969 14.94 94.7931 15.0249C94.8892 15.1097 94.9628 15.2087 95.0137 15.3219C95.0646 15.435 95.09 15.5595 95.09 15.6952C95.09 15.9781 94.9967 16.2015 94.81 16.3656C94.6233 16.5296 94.3801 16.6456 94.0803 16.7135C93.7804 16.7814 93.4608 16.8153 93.1214 16.8153C92.9404 16.8153 92.7395 16.8012 92.5189 16.7729C92.2983 16.7446 92.0663 16.705 91.8231 16.6541C91.5798 16.6032 91.3309 16.541 91.0763 16.4674C90.8218 16.3939 90.5644 16.3118 90.3042 16.2213L90.372 17.6639C90.6662 17.7657 90.9349 17.8477 91.1782 17.91C91.4214 17.9722 91.6534 18.0259 91.874 18.0712C92.0946 18.1165 92.3096 18.1447 92.5189 18.1561C92.7282 18.1674 92.9404 18.173 93.1553 18.173C93.6531 18.173 94.1227 18.1249 94.5639 18.0288C95.0052 17.9326 95.3899 17.7827 95.718 17.579C96.0461 17.3754 96.3035 17.1095 96.4902 16.7814C96.6769 16.4533 96.7702 16.0629 96.7702 15.6104C96.7702 15.2709 96.7221 14.9796 96.6259 14.7363C96.5298 14.4931 96.3968 14.2809 96.2271 14.0999ZM101.497 16.7559C101.446 16.7616 101.386 16.7644 101.319 16.7644C101.171 16.7644 101.047 16.7418 100.945 16.6965C100.843 16.6513 100.758 16.5806 100.691 16.4844C100.623 16.3882 100.575 16.2666 100.546 16.1195C100.518 15.9724 100.504 15.797 100.504 15.5934V5.19L98.7728 5.44457V16.3571C98.7728 16.6852 98.8181 16.9652 98.9086 17.1972C98.9991 17.4291 99.1292 17.6186 99.2989 17.7657C99.4686 17.9128 99.6695 18.0175 99.9014 18.0797C100.133 18.1419 100.385 18.173 100.657 18.173C100.792 18.173 100.923 18.1674 101.047 18.1561C101.171 18.1447 101.293 18.1278 101.412 18.1051C101.531 18.0825 101.63 18.0599 101.709 18.0373L101.879 16.6965C101.811 16.7078 101.743 16.7192 101.675 16.7305C101.607 16.7418 101.548 16.7503 101.497 16.7559ZM111.705 13.5738C111.705 14.5129 111.515 15.3275 111.136 16.0177C110.757 16.7078 110.228 17.2396 109.55 17.613C108.871 17.9863 108.09 18.173 107.208 18.173C106.325 18.173 105.612 17.9977 104.967 17.6469C104.322 17.2962 103.827 16.7842 103.482 16.111C103.137 15.4378 102.965 14.6373 102.965 13.7096C102.965 12.7818 103.149 11.9785 103.516 11.2997C103.884 10.6208 104.399 10.0947 105.061 9.72133C105.723 9.34796 106.495 9.16128 107.377 9.16128C108.26 9.16128 109.026 9.34231 109.677 9.70436C110.327 10.0664 110.828 10.5784 111.179 11.2403C111.53 11.9021 111.705 12.68 111.705 13.5738ZM109.906 13.6078C109.906 13.1439 109.855 12.7224 109.753 12.3434C109.651 11.9644 109.496 11.6391 109.287 11.3675C109.077 11.096 108.817 10.8895 108.506 10.7481C108.195 10.6067 107.824 10.536 107.394 10.536C106.851 10.536 106.384 10.6491 105.994 10.8754C105.604 11.1017 105.301 11.4411 105.086 11.8937C104.871 12.3462 104.764 12.9176 104.764 13.6078C104.764 14.2979 104.871 14.8976 105.086 15.3728C105.301 15.848 105.595 16.2044 105.969 16.442C106.342 16.6796 106.783 16.7984 107.292 16.7984C107.802 16.7984 108.254 16.6824 108.65 16.4504C109.046 16.2185 109.354 15.8649 109.575 15.3897C109.796 14.9145 109.906 14.3205 109.906 13.6078Z" fill="#1767CE"/>
</g>
<defs>
<clipPath id="clip0_5919_2930">
<rect width="74" height="14" fill="white" transform="translate(38 5)"/>
</clipPath>
</defs>
</svg>

<svg xmlns="http://www.w3.org/2000/svg" viewBox="0 0 115 24"><path fill="#0A2343" d="M0 17.999v-12h4v12H0Zm9.244-10.09L11.508 18H7.2l-2.704-12h2.417a2.276 2.276 0 0 1 1.513.55c.42.346.66.826.819 1.36ZM12 18v-12h4v12h-4Zm7.01-7.436a2.381 2.381 0 0 1-2.078-1.191 2.345 2.345 0 0 1-.321-1.209 2.301 2.301 0 0 1 .321-1.2 2.41 2.41 0 0 1 3.278-.862c.356.21.653.506.862.862.215.363.326.778.321 1.2a2.35 2.35 0 0 1-.321 1.208 2.4 2.4 0 0 1-.862.87 2.3 2.3 0 0 1-1.2.322ZM22 17.999v-12h4v12h-4Zm8.974-5.442c.01.012.095.15.253.414s.364.602.617 1.014a322.716 322.716 0 0 1 1.597 2.62c.247.41.529.876.845 1.394H29.96c-.27-.44-.516-.837-.736-1.192-.22-.355-.453-.738-.7-1.149-.248-.41-.493-.81-.736-1.2-.242-.389-.45-.73-.625-1.022a18.04 18.04 0 0 0-.363-.592 1.747 1.747 0 0 1-.287-.845c.016-.29.11-.57.27-.811.067-.113.191-.313.371-.6s.392-.628.634-1.023c.242-.394.488-.797.736-1.208l.7-1.158.736-1.2h4.326l-3.346 5.46a1.08 1.08 0 0 0-.17.54c.012.202.083.396.204.558Z"/><g clip-path="url(#a)"><path fill="#1767CE" d="M46.493 13.285c.13.362.195.792.195 1.29 0 .679-.116 1.248-.348 1.706-.232.458-.56.829-.984 1.111a4.324 4.324 0 0 1-1.477.611 8.32 8.32 0 0 1-1.807.187c-.272 0-.54-.011-.806-.034a12.819 12.819 0 0 1-.798-.093 7.905 7.905 0 0 1-.823-.17 9.243 9.243 0 0 1-.883-.28l-.22-1.68c.271.102.557.2.857.297.3.096.608.178.925.246.317.068.633.122.95.161.317.04.622.06.917.06.35 0 .664-.023.941-.068.278-.046.524-.12.739-.221.215-.102.396-.238.543-.407.147-.17.26-.368.34-.594.078-.227.118-.487.118-.781 0-.294-.042-.526-.127-.73a1.43 1.43 0 0 0-.348-.509 2.202 2.202 0 0 0-.535-.356 4.25 4.25 0 0 0-.704-.263c-.26-.074-.543-.145-.849-.213-.373-.079-.738-.175-1.094-.288a6.278 6.278 0 0 1-.993-.407 3.277 3.277 0 0 1-.815-.594 2.457 2.457 0 0 1-.551-.857c-.13-.334-.196-.733-.196-1.197 0-.588.105-1.097.315-1.527.209-.43.509-.787.899-1.07.39-.282.851-.492 1.383-.627a7.208 7.208 0 0 1 1.782-.204c.294 0 .583.014.866.042.282.029.56.071.831.128.272.056.54.124.806.203.266.08.518.181.756.306l-.238 1.493a4.282 4.282 0 0 0-.67-.297 6.45 6.45 0 0 0-.756-.212 7.7 7.7 0 0 0-1.595-.17c-.317 0-.608.02-.874.06-.266.04-.5.107-.704.204a2.102 2.102 0 0 0-.535.356 1.291 1.291 0 0 0-.34.518 2.04 2.04 0 0 0-.11.695c0 .26.037.484.11.67.074.187.185.346.332.476.147.13.32.243.517.34.198.095.425.178.68.245.254.068.528.136.822.204.385.08.758.175 1.12.289.362.113.705.251 1.027.415.323.165.605.37.849.62.243.249.43.554.56.916Zm6.517 3.352-.289.051c-.096.017-.19.028-.28.034-.09.006-.175.008-.254.008-.294 0-.546-.05-.756-.152a1.095 1.095 0 0 1-.483-.45 1.432 1.432 0 0 1-.17-.721v-4.701h2.393l.187-1.358h-2.58V6.666l-1.731.611v2.071H47.74l-.187 1.358h1.494v5.057c0 .385.05.716.153.993.101.277.234.506.398.687.165.181.357.323.578.424.22.102.455.176.704.221.249.045.492.068.73.068.18 0 .359-.006.534-.017a5.546 5.546 0 0 0 .9-.127c.13-.029.24-.054.33-.077l.102-1.408a1.278 1.278 0 0 1-.203.06c-.08.016-.167.033-.263.05Zm9.665-5.397c.35.662.526 1.44.526 2.334 0 .939-.19 1.754-.569 2.444a3.953 3.953 0 0 1-1.586 1.595c-.68.373-1.46.56-2.342.56-.883 0-1.596-.175-2.24-.526a3.542 3.542 0 0 1-1.486-1.536c-.345-.673-.517-1.474-.517-2.401 0-.928.184-1.732.551-2.41a3.913 3.913 0 0 1 1.545-1.579c.662-.373 1.434-.56 2.316-.56.883 0 1.65.181 2.3.543.65.362 1.151.874 1.502 1.536Zm-1.273 2.368c0-.464-.05-.886-.153-1.265a2.745 2.745 0 0 0-.466-.976 2.034 2.034 0 0 0-.781-.619c-.311-.141-.682-.212-1.112-.212-.543 0-1.01.113-1.4.34-.39.226-.693.565-.908 1.018-.215.452-.322 1.024-.322 1.714s.107 1.29.322 1.765c.215.475.51.831.883 1.069s.814.356 1.323.356c.51 0 .962-.116 1.358-.348.396-.232.704-.585.925-1.06.22-.476.331-1.07.331-1.782Zm7.45-4.32a3.337 3.337 0 0 0-.899.39 4.425 4.425 0 0 0-.798.637c-.04.04-.079.085-.118.128V9.178l-1.732.255v8.57h1.731v-6.412a4.228 4.228 0 0 1 .925-.495c.176-.068.354-.127.535-.178a3.609 3.609 0 0 1 1.188-.127l.204-1.596a3.23 3.23 0 0 0-1.035.094Zm1.545 4.591H75.2l.118-1.391h-4.802l-.12 1.391Zm17.921-4.446c.26.758.39 1.6.39 2.528 0 .928-.135 1.822-.406 2.58a5.55 5.55 0 0 1-1.172 1.952 5.176 5.176 0 0 1-1.84 1.256c-.72.294-1.531.441-2.436.441s-1.695-.139-2.402-.416a4.878 4.878 0 0 1-1.807-1.213 5.322 5.322 0 0 1-1.137-1.927c-.26-.752-.39-1.598-.39-2.537 0-.939.132-1.796.398-2.57.266-.776.65-1.44 1.154-1.995a5.16 5.16 0 0 1 1.842-1.29c.724-.305 1.544-.458 2.46-.458.917 0 1.712.147 2.419.441a4.965 4.965 0 0 1 1.799 1.256 5.548 5.548 0 0 1 1.129 1.952Zm-1.442 2.546c0-.94-.156-1.763-.467-2.47-.31-.707-.755-1.256-1.332-1.646-.577-.39-1.278-.586-2.104-.586-.826 0-1.573.207-2.173.62-.6.413-1.06.981-1.383 1.706-.322.724-.484 1.555-.484 2.494 0 .702.088 1.335.263 1.901.176.566.436 1.05.781 1.451.345.402.758.71 1.239.925.48.215 1.033.323 1.655.323.622 0 1.216-.116 1.714-.348a3.533 3.533 0 0 0 1.256-.968 4.26 4.26 0 0 0 .772-1.485 6.577 6.577 0 0 0 .263-1.918Zm9.351 2.12a2.55 2.55 0 0 0-.594-.466 4.54 4.54 0 0 0-.713-.33c-.18-.057-.359-.117-.534-.179a9.364 9.364 0 0 0-.526-.17 10.863 10.863 0 0 1-.51-.16 3.69 3.69 0 0 1-.45-.188 3.018 3.018 0 0 1-.398-.254 1.118 1.118 0 0 1-.289-.323.818.818 0 0 1-.11-.424.88.88 0 0 1 .119-.467c.08-.13.198-.24.356-.33a1.92 1.92 0 0 1 .569-.204c.22-.045.472-.068.755-.068a5.345 5.345 0 0 1 .891.076c.175.029.35.065.526.11.175.046.354.097.535.153.18.057.345.12.492.187l.119-1.375a7.996 7.996 0 0 0-.637-.237 6.208 6.208 0 0 0-.636-.17 5.081 5.081 0 0 0-.636-.093 7.661 7.661 0 0 0-.62-.026c-.51 0-.973.054-1.392.162a3.505 3.505 0 0 0-1.094.475c-.311.209-.552.475-.722.797-.17.323-.254.705-.254 1.146 0 .317.045.597.136.84a2 2 0 0 0 .356.62c.147.17.32.32.518.45s.41.24.636.33a15.19 15.19 0 0 0 .79.263 31.49 31.49 0 0 1 .746.238c.119.04.235.076.348.11.158.057.305.122.441.195.136.074.252.153.348.238a.867.867 0 0 1 .297.67c0 .283-.093.506-.28.67-.187.165-.43.28-.73.349-.3.067-.62.101-.959.101a4.77 4.77 0 0 1-.602-.042 8.987 8.987 0 0 1-.696-.119c-.243-.05-.492-.113-.747-.187a15.133 15.133 0 0 1-.772-.246l.068 1.443c.294.102.563.184.806.246.243.062.475.116.696.161.22.045.436.074.645.085.21.011.421.017.636.017.498 0 .968-.048 1.409-.144a3.64 3.64 0 0 0 1.154-.45c.328-.204.585-.47.772-.798.187-.328.28-.718.28-1.17 0-.34-.048-.631-.144-.875a1.988 1.988 0 0 0-.399-.636Zm5.27 2.657a1.634 1.634 0 0 1-.178.008.917.917 0 0 1-.374-.067.604.604 0 0 1-.254-.213.94.94 0 0 1-.145-.365 2.854 2.854 0 0 1-.042-.526V5.19l-1.731.255v10.912c0 .328.045.608.136.84.09.232.22.422.39.569.17.147.37.252.602.314.232.062.484.093.756.093a3.812 3.812 0 0 0 1.052-.136l.17-1.34c-.068.01-.136.022-.204.034-.068.01-.127.02-.178.025Zm10.208-3.182c0 .939-.19 1.754-.569 2.444a3.956 3.956 0 0 1-1.586 1.595c-.679.373-1.46.56-2.342.56-.883 0-1.596-.175-2.241-.526a3.541 3.541 0 0 1-1.485-1.536c-.345-.673-.517-1.474-.517-2.401 0-.928.184-1.732.551-2.41a3.916 3.916 0 0 1 1.545-1.579c.662-.373 1.434-.56 2.316-.56.883 0 1.649.181 2.3.543.65.362 1.151.874 1.502 1.536s.526 1.44.526 2.334Zm-1.799.034c0-.464-.051-.886-.153-1.265a2.753 2.753 0 0 0-.466-.976 2.042 2.042 0 0 0-.781-.619c-.311-.141-.682-.212-1.112-.212-.543 0-1.01.113-1.4.34-.39.226-.693.565-.908 1.018-.215.452-.322 1.024-.322 1.714s.107 1.29.322 1.765c.215.475.509.831.883 1.069.373.238.814.356 1.323.356.51 0 .962-.116 1.358-.348.396-.232.704-.585.925-1.06.221-.476.331-1.07.331-1.782Z"/></g><defs><clipPath id="a"><path fill="#fff" d="M38 5h74v14H38z"/></clipPath></defs></svg>
